X: 23179
T: Le Reel De Violon Du Monte En Vielle
R: reel
M: 4/4
K: Amixolydian
|:a2ab afeg|f2fg fedf|e2ef e^gae|fedf eABA|
a2ab afeg|f2fg fedf|e2ef e2cA|BABc A4:|
|:A2 (3Bcd ecAc|afdf e2ef|e2cA BAGA|[M:2/4]BdcB|
A2 (3Bcd ecAc|afdf e2ef|e2cA BAGB|[M:2/4]A2E2:|
|:A2cA BAcA|dBBd cAAB|A2cA BAcA|dBBd cAAG|
A2cA BAcA|dBBd cAAB|A2cA BAcA|dBBd cAAG|[M:2/4]A2E2:|
A2cA BAcA|dBBd cAAB|=G2cA BAcA|dBBd cAAB|
F2cA BAcA|dBBd cAAB|=G2cA BAcA|dBBd cAAB|[M:2/4]A2z2||
|:e3d cAEe|fefg a3f|efed c2Ac|BABc BcdB|
e3d cAEe|fefg a3f|efed c2Ac|BAGB A4:|

